build/system/SettingsSolid.svg

<svg xmlns="http://www.w3.org/2000/svg" fill="none" viewBox="0 0 24 24" focusable="false"><path d="M0 0H24V24H0z"/><path fill="#74767B" fill-rule="evenodd" d="M9.22535 4.5354C9.34712 3.65809 10.0972 3.00494 10.9829 3.00494L12.8964 3.00494C13.7713 3.00494 14.5157 3.64275 14.6498 4.50738C14.8232 5.62549 16.015 6.29682 17.0778 5.86531C17.8985 5.53211 18.8392 5.85512 19.282 6.62217L20.2387 8.27929C20.6762 9.03703 20.4961 10.0006 19.8143 10.549C18.9327 11.2583 18.9472 12.6261 19.8523 13.3307C20.5512 13.8748 20.7418 14.851 20.299 15.618L19.3422 17.2751C18.9047 18.0329 17.9802 18.3586 17.1644 18.0424C16.0549 17.6125 14.8322 18.3184 14.6498 19.4942C14.5157 20.3588 13.7713 20.9966 12.8964 20.9966L10.9829 20.9966C10.0972 20.9966 9.34712 20.3435 9.22535 19.4662C9.06765 18.33 7.89037 17.6336 6.83534 18.0424C6.0195 18.3586 5.09496 18.0329 4.65747 17.2751L3.70074 15.618C3.25788 14.851 3.44849 13.8748 4.14737 13.3307C5.05247 12.6261 5.06698 11.2583 4.18538 10.549C3.50364 10.0006 3.32346 9.03703 3.76095 8.27929L4.71768 6.62217C5.16054 5.85512 6.10122 5.53211 6.92187 5.86531C7.93962 6.27853 9.07434 5.6234 9.22535 4.5354ZM11.9998 16C14.209 16 15.9998 14.2092 15.9998 12C15.9998 9.79088 14.209 8.00002 11.9998 8.00002C9.79071 8.00002 7.99985 9.79088 7.99985 12C7.99985 14.2092 9.79071 16 11.9998 16Z"/></svg>

<svg xmlns="http://www.w3.org/2000/svg" fill="none" viewBox="0 0 24 24" focusable="false"><path fill="#74767B" fill-rule="evenodd" d="M9.22 4.53c.12-.88.87-1.53 1.76-1.53h1.91c.88 0 1.62.64 1.75 1.5a1.784 1.784 0 0 0 2.43 1.36c.82-.33 1.76-.01 2.21.76l.95 1.65c.44.76.26 1.73-.42 2.27-.88.71-.87 2.08.04 2.79.7.54.89 1.52.44 2.28l-.95 1.66c-.44.76-1.36 1.08-2.18.77-1.11-.43-2.33.27-2.52 1.45-.13.86-.87 1.5-1.75 1.5h-1.91c-.89 0-1.64-.65-1.76-1.53-.16-1.13-1.33-1.83-2.39-1.42-.82.31-1.74-.01-2.18-.77l-.95-1.66c-.45-.76-.26-1.74.44-2.28.91-.71.92-2.08.04-2.79a1.77 1.77 0 0 1-.42-2.27l.95-1.65c.45-.77 1.39-1.09 2.21-.76 1.01.41 2.15-.24 2.3-1.33M12 16c2.2 0 4-1.8 4-4a3.999 3.999 0 1 0-4 4"/></svg>
